images/php.svg

<svg width="80" height="80" viewBox="0 0 80 80" fill="none" xmlns="http://www.w3.org/2000/svg">
<path d="M72.7778 41C71.3175 50.2858 68.4763 53 63.4445 59.2381C58.4128 64.5239 51.1747 73.3493 40.9207 72.8572C31.635 71.3969 28.9207 68.5556 22.6826 63.5239C17.3969 58.4921 8.57149 51.254 9.06356 41C10.5239 31.7143 13.3651 29 18.3969 22.7619C23.4286 17.4762 30.6667 8.65084 40.9207 9.1429C50.2064 10.6032 52.9207 13.4445 59.1588 18.4762C64.4445 23.508 73.2699 30.7461 72.7778 41Z" fill="#3765AF"/>
<path d="M28.4602 37.3332C29.7142 37.3332 30.492 37.5396 30.9047 38.0158C31.3174 38.4285 31.365 39.2697 31.1587 40.3015C30.9523 41.4443 30.5396 42.2697 29.8571 42.7459C29.238 43.2062 28.2539 43.4761 26.9523 43.4761H24.984L26.1745 37.238C26.1745 37.3332 28.4602 37.3332 28.4602 37.3332ZM20.5714 49.7935H23.7936L24.5237 45.8411H27.3333C28.5872 45.8411 29.5079 45.73 30.3491 45.4761C31.1269 45.2221 31.8571 44.7935 32.4761 44.1745C32.9999 43.7142 33.4602 43.0792 33.8253 42.5078C34.1428 41.9364 34.3968 41.2062 34.5079 40.5396C34.8253 38.7777 34.619 37.4285 33.7777 36.4443C32.9523 35.4602 31.6031 34.984 29.7301 34.984H23.492L20.5714 49.7935Z" fill="white"/>
<path d="M37.7619 31.0476H40.9841L40.2539 35H43.1111C44.873 35 46.1746 35.3174 46.7936 35.9841C47.4762 36.6032 47.7301 37.6508 47.365 39.0476L46.0158 45.9524H42.746L44.0476 39.4127C44.2063 38.6825 44.1587 38.1587 43.8889 37.9048C43.6349 37.6508 43.1111 37.4921 42.2857 37.4921H39.746L38.0793 45.9524H34.8571L37.7619 31.0476Z" fill="white"/>
<path d="M54.476 37.3332C55.73 37.3332 56.5078 37.5396 56.9205 38.0158C57.3332 38.4285 57.3808 39.2697 57.1745 40.3015C56.9681 41.4443 56.5554 42.2697 55.8729 42.7459C55.2538 43.2062 54.2697 43.4761 52.9681 43.4761H50.9998L52.1903 37.238C52.2538 37.3332 54.476 37.3332 54.476 37.3332ZM46.6348 49.7935H49.857L50.5872 45.8411H53.3967C54.6506 45.8411 55.5713 45.73 56.4125 45.4761C57.1903 45.2221 57.9205 44.7935 58.5395 44.1745C59.0633 43.7142 59.5237 43.0792 59.8887 42.5078C60.2062 41.9364 60.4602 41.2062 60.5713 40.5396C60.8887 38.7777 60.6824 37.4285 59.8411 36.4443C59.0157 35.4602 57.6665 34.984 55.7935 34.984H49.5554L46.6348 49.7935Z" fill="white"/>
</svg>

<svg width="80" height="80" viewBox="0 0 80 80" fill="none" xmlns="http://www.w3.org/2000/svg"><path d="M72.778 41c-1.46 9.286-4.302 12-9.334 18.238-5.031 5.286-12.27 14.111-22.523 13.62-9.286-1.461-12-4.302-18.238-9.334C17.397 58.492 8.57 51.254 9.063 41c1.46-9.286 4.302-12 9.334-18.238 5.032-5.286 12.27-14.111 22.524-13.62 9.285 1.461 12 4.303 18.238 9.334 5.286 5.032 14.11 12.27 13.619 22.524z" fill="#3765AF"/><path d="M28.46 37.333c1.254 0 2.032.207 2.445.683.412.413.46 1.254.254 2.285-.207 1.143-.62 1.969-1.302 2.445-.619.46-1.603.73-2.905.73h-1.968l1.19-6.238c0 .095 2.286.095 2.286.095zm-7.889 12.46h3.223l.73-3.952h2.81c1.253 0 2.174-.111 3.015-.365a5.33 5.33 0 002.127-1.301c.524-.46.984-1.096 1.35-1.667a6.437 6.437 0 00.682-1.968c.317-1.762.111-3.111-.73-4.096-.826-.984-2.175-1.46-4.048-1.46h-6.238l-2.92 14.81zm17.191-18.745h3.222L40.254 35h2.857c1.762 0 3.064.317 3.683.984.682.62.936 1.667.571 3.064l-1.35 6.904h-3.269l1.302-6.54c.158-.73.11-1.253-.16-1.507-.253-.254-.777-.413-1.602-.413h-2.54l-1.667 8.46h-3.222l2.905-14.904zm16.714 6.285c1.254 0 2.032.207 2.444.683.413.413.46 1.254.255 2.285-.207 1.143-.62 1.969-1.302 2.445-.62.46-1.603.73-2.905.73H51l1.19-6.238c.064.095 2.286.095 2.286.095zm-7.841 12.46h3.222l.73-3.952h2.81c1.254 0 2.174-.111 3.016-.365a5.33 5.33 0 002.127-1.301c.523-.46.984-1.096 1.349-1.667a6.437 6.437 0 00.682-1.968c.318-1.762.111-3.111-.73-4.096-.825-.984-2.175-1.46-4.047-1.46h-6.239l-2.92 14.81z" fill="#fff"/></svg>
